X: 480
T:Sault's Own hornpipe
M:4/4
L:1/8
Q:180
R:Hornpipe
Z:Andrew Pickering
N:Posted to the woodenflute mailing list January 2002
K:G
dc|BG (3Bcd gbaf|gdBG D2 (3Bcd|cBcd efgf|edcB A2dc|
BG (3Bcd gbaf|gbaf g2dc|(3Bcd gd ecAF|G2GF G2:|
Bc|dg{a}gf gabg|dg{a}(3gfg dg{a}(3gfg|da{b}ag a2ag|ea{b}(3aga ea{b}(3aga|
dg{a}gf g2bg|dg{a}(3gfg egdg|bg (3agf gedc|BGAF G2:|

